img/radio-off.svg

<svg width="16" height="16" fill="none" xmlns="http://www.w3.org/2000/svg"><path fill-rule="evenodd" clip-rule="evenodd" d="m8.00194 1.33333-.00236.00001c-3.68167 0-6.66625 2.98458-6.66625 6.66624 0 3.68102 2.98353 6.66522 6.6643 6.66622H8c3.6817 0 6.6662-2.9846 6.6662-6.66623 0-3.68101-2.9835-6.66518-6.66426-6.66624Zm0 14.66577c-.00078 0-.00157.0001-.00236.0001C3.58153 15.9992 0 12.4176 0 7.99958 0 3.58251 3.57996.00158 7.99666.00001L8 0c4.418 0 7.9996 3.58153 7.9996 7.99957 0 4.41743-3.5805 7.99853-7.99766 7.99953Z" fill="#2D3440"/></svg>

<svg width="16" height="16" viewBox="0 0 16 16" fill="none" xmlns="http://www.w3.org/2000/svg">
<path fill-rule="evenodd" clip-rule="evenodd" d="M8.00194 1.33333C8.00116 1.33334 8.00037 1.33334 7.99958 1.33334C4.31791 1.33334 1.33333 4.31792 1.33333 7.99958C1.33333 11.6806 4.31686 14.6648 7.99763 14.6658C7.99842 14.6658 7.99921 14.6658 8 14.6658C11.6817 14.6658 14.6662 11.6812 14.6662 7.99957C14.6662 4.31856 11.6827 1.33439 8.00194 1.33333ZM8.00194 15.9991C8.00116 15.9991 8.00037 15.9992 7.99958 15.9992C3.58153 15.9992 0 12.4176 0 7.99958C0 3.58251 3.57996 0.00158592 7.99666 8.18445e-06C7.99777 2.73026e-06 7.99888 0 8 0C12.418 0 15.9996 3.58153 15.9996 7.99957C15.9996 12.417 12.4191 15.9981 8.00194 15.9991Z" fill="#2D3440"/>
</svg>
